luts/gamma/argb--lin.spi1d
Version 1
From -0.125 1.125
Length 4096
Components 1
{
	-0.112500000000
	-0.112225274725
	-0.111950549451
	-0.111675824176
	-0.111401098901
	-0.111126373626
	-0.110851648352
	-0.110576923077
	-0.110302197802
	-0.110027472527
	-0.109752747253
	-0.109478021978
	-0.109203296703
	-0.108928571429
	-0.108653846154
	-0.108379120879
	-0.108104395604
	-0.107829670330
	-0.107554945055
	-0.107280219780
	-0.107005494505
	-0.106730769231
	-0.106456043956
	-0.106181318681
	-0.105906593407
	-0.105631868132
	-0.105357142857
	-0.105082417582
	-0.104807692308
	-0.104532967033
	-0.104258241758
	-0.103983516484
	-0.103708791209
	-0.103434065934
	-0.103159340659
	-0.102884615385
	-0.102609890110
	-0.102335164835
	-0.102060439560
	-0.101785714286
	-0.101510989011
	-0.101236263736
	-0.100961538462
	-0.100686813187
	-0.100412087912
	-0.100137362637
	-0.099862637363
	-0.099587912088
	-0.099313186813
	-0.099038461538
	-0.098763736264
	-0.098489010989
	-0.098214285714
	-0.097939560440
	-0.097664835165
	-0.097390109890
	-0.097115384615
	-0.096840659341
	-0.096565934066
	-0.096291208791
	-0.096016483516
	-0.095741758242
	-0.095467032967
	-0.095192307692
	-0.094917582418
	-0.094642857143
	-0.094368131868
	-0.094093406593
	-0.093818681319
	-0.093543956044
	-0.093269230769
	-0.092994505495
	-0.092719780220
	-0.092445054945
	-0.092170329670
	-0.091895604396
	-0.091620879121
	-0.091346153846
	-0.091071428571
	-0.090796703297
	-0.090521978022
	-0.090247252747
	-0.089972527473
	-0.089697802198
	-0.089423076923
	-0.089148351648
	-0.088873626374
	-0.088598901099
	-0.088324175824
	-0.088049450549
	-0.087774725275
	-0.087500000000
	-0.087225274725
	-0.086950549451
	-0.086675824176
	-0.086401098901
	-0.086126373626
	-0.085851648352
	-0.085576923077
	-0.085302197802
	-0.085027472527
	-0.084752747253
	-0.084478021978
	-0.084203296703
	-0.083928571429
	-0.083653846154
	-0.083379120879
	-0.083104395604
	-0.082829670330
	-0.082554945055
	-0.082280219780
	-0.082005494505
	-0.081730769231
	-0.081456043956
	-0.081181318681
	-0.080906593407
	-0.080631868132
	-0.080357142857
	-0.080082417582
	-0.079807692308
	-0.079532967033
	-0.079258241758
	-0.078983516484
	-0.078708791209
	-0.078434065934
	-0.078159340659
	-0.077884615385
	-0.077609890110
	-0.077335164835
	-0.077060439560
	-0.076785714286
	-0.076510989011
	-0.076236263736
	-0.075961538462
	-0.075686813187
	-0.075412087912
	-0.075137362637
	-0.074862637363
	-0.074587912088
	-0.074313186813
	-0.074038461538
	-0.073763736264
	-0.073489010989
	-0.073214285714
	-0.072939560440
	-0.072664835165
	-0.072390109890
	-0.072115384615
	-0.071840659341
	-0.071565934066
	-0.071291208791
	-0.071016483516
	-0.070741758242
	-0.070467032967
	-0.070192307692
	-0.069917582418
	-0.069642857143
	-0.069368131868
	-0.069093406593
	-0.068818681319
	-0.068543956044
	-0.068269230769
	-0.067994505495
	-0.067719780220
	-0.067445054945
	-0.067170329670
	-0.066895604396
	-0.066620879121
	-0.066346153846
	-0.066071428571
	-0.065796703297
	-0.065521978022
	-0.065247252747
	-0.064972527473
	-0.064697802198
	-0.064423076923
	-0.064148351648
	-0.063873626374
	-0.063598901099
	-0.063324175824
	-0.063049450549
	-0.062774725275
	-0.062500000000
	-0.062225274725
	-0.061950549451
	-0.061675824176
	-0.061401098901
	-0.061126373626
	-0.060851648352
	-0.060576923077
	-0.060302197802
	-0.060027472527
	-0.059752747253
	-0.059478021978
	-0.059203296703
	-0.058928571429
	-0.058653846154
	-0.058379120879
	-0.058104395604
	-0.057829670330
	-0.057554945055
	-0.057280219780
	-0.057005494505
	-0.056730769231
	-0.056456043956
	-0.056181318681
	-0.055906593407
	-0.055631868132
	-0.055357142857
	-0.055082417582
	-0.054807692308
	-0.054532967033
	-0.054258241758
	-0.053983516484
	-0.053708791209
	-0.053434065934
	-0.053159340659
	-0.052884615385
	-0.052609890110
	-0.052335164835
	-0.052060439560
	-0.051785714286
	-0.051510989011
	-0.051236263736
	-0.050961538462
	-0.050686813187
	-0.050412087912
	-0.050137362637
	-0.049862637363
	-0.049587912088
	-0.049313186813
	-0.049038461538
	-0.048763736264
	-0.048489010989
	-0.048214285714
	-0.047939560440
	-0.047664835165
	-0.047390109890
	-0.047115384615
	-0.046840659341
	-0.046565934066
	-0.046291208791
	-0.046016483516
	-0.045741758242
	-0.045467032967
	-0.045192307692
	-0.044917582418
	-0.044642857143
	-0.044368131868
	-0.044093406593
	-0.043818681319
	-0.043543956044
	-0.043269230769
	-0.042994505495
	-0.042719780220
	-0.042445054945
	-0.042170329670
	-0.041895604396
	-0.041620879121
	-0.041346153846
	-0.041071428571
	-0.040796703297
	-0.040521978022
	-0.040247252747
	-0.039972527473
	-0.039697802198
	-0.039423076923
	-0.039148351648
	-0.038873626374
	-0.038598901099
	-0.038324175824
	-0.038049450549
	-0.037774725275
	-0.037500000000
	-0.037225274725
	-0.036950549451
	-0.036675824176
	-0.036401098901
	-0.036126373626
	-0.035851648352
	-0.035576923077
	-0.035302197802
	-0.035027472527
	-0.034752747253
	-0.034478021978
	-0.034203296703
	-0.033928571429
	-0.033653846154
	-0.033379120879
	-0.033104395604
	-0.032829670330
	-0.032554945055
	-0.032280219780
	-0.032005494505
	-0.031730769231
	-0.031456043956
	-0.031181318681
	-0.030906593407
	-0.030631868132
	-0.030357142857
	-0.030082417582
	-0.029807692308
	-0.029532967033
	-0.029258241758
	-0.028983516484
	-0.028708791209
	-0.028434065934
	-0.028159340659
	-0.027884615385
	-0.027609890110
	-0.027335164835
	-0.027060439560
	-0.026785714286
	-0.026510989011
	-0.026236263736
	-0.025961538462
	-0.025686813187
	-0.025412087912
	-0.025137362637
	-0.024862637363
	-0.024587912088
	-0.024313186813
	-0.024038461538
	-0.023763736264
	-0.023489010989
	-0.023214285714
	-0.022939560440
	-0.022664835165
	-0.022390109890
	-0.022115384615
	-0.021840659341
	-0.021565934066
	-0.021291208791
	-0.021016483516
	-0.020741758242
	-0.020467032967
	-0.020192307692
	-0.019917582418
	-0.019642857143
	-0.019368131868
	-0.019093406593
	-0.018818681319
	-0.018543956044
	-0.018269230769
	-0.017994505495
	-0.017719780220
	-0.017445054945
	-0.017170329670
	-0.016895604396
	-0.016620879121
	-0.016346153846
	-0.016071428571
	-0.015796703297
	-0.015521978022
	-0.015247252747
	-0.014972527473
	-0.014697802198
	-0.014423076923
	-0.014148351648
	-0.013873626374
	-0.013598901099
	-0.013324175824
	-0.013049450549
	-0.012774725275
	-0.012500000000
	-0.012225274725
	-0.011950549451
	-0.011675824176
	-0.011401098901
	-0.011126373626
	-0.010851648352
	-0.010576923077
	-0.010302197802
	-0.010027472527
	-0.009752747253
	-0.009478021978
	-0.009203296703
	-0.008928571429
	-0.008653846154
	-0.008379120879
	-0.008104395604
	-0.007829670330
	-0.007554945055
	-0.007280219780
	-0.007005494505
	-0.006730769231
	-0.006456043956
	-0.006181318681
	-0.005906593407
	-0.005631868132
	-0.005357142857
	-0.005082417582
	-0.004807692308
	-0.004532967033
	-0.004258241758
	-0.003983516484
	-0.003708791209
	-0.003434065934
	-0.003159340659
	-0.002884615385
	-0.002609890110
	-0.002335164835
	-0.002060439560
	-0.001785714286
	-0.001510989011
	-0.001236263736
	-0.000961538462
	-0.000686813187
	-0.000412087912
	-0.000137362637
	0.000000003616
	0.000000040540
	0.000000124725
	0.000000261478
	0.000000454520
	0.000000706779
	0.000001020693
	0.000001398366
	0.000001841652
	0.000002352220
	0.000002931584
	0.000003581139
	0.000004302174
	0.000005095892
	0.000005963422
	0.000006905827
	0.000007924112
	0.000009019234
	0.000010192102
	0.000011443585
	0.000012774516
	0.000014185693
	0.000015677885
	0.000017251833
	0.000018908250
	0.000020647826
	0.000022471231
	0.000024379111
	0.000026372095
	0.000028450793
	0.000030615799
	0.000032867689
	0.000035207026
	0.000037634359
	0.000040150222
	0.000042755139
	0.000045449619
	0.000048234162
	0.000051109255
	0.000054075377
	0.000057132996
	0.000060282570
	0.000063524549
	0.000066859375
	0.000070287479
	0.000073809288
	0.000077425219
	0.000081135681
	0.000084941078
	0.000088841807
	0.000092838257
	0.000096930811
	0.000101119849
	0.000105405741
	0.000109788853
	0.000114269547
	0.000118848178
	0.000123525097
	0.000128300648
	0.000133175173
	0.000138149007
	0.000143222483
	0.000148395928
	0.000153669664
	0.000159044010
	0.000164519282
	0.000170095790
	0.000175773842
	0.000181553741
	0.000187435787
	0.000193420277
	0.000199507505
	0.000205697758
	0.000211991326
	0.000218388490
	0.000224889531
	0.000231494726
	0.000238204351
	0.000245018676
	0.000251937971
	0.000258962501
	0.000266092531
	0.000273328320
	0.000280670127
	0.000288118208
	0.000295672816
	0.000303334202
	0.000311102615
	0.000318978301
	0.000326961504
	0.000335052466
	0.000343251427
	0.000351558625
	0.000359974294
	0.000368498669
	0.000377131981
	0.000385874459
	0.000394726332
	0.000403687825
	0.000412759162
	0.000421940565
	0.000431232255
	0.000440634450
	0.000450147367
	0.000459771221
	0.000469506226
	0.000479352594
	0.000489310535
	0.000499380257
	0.000509561969
	0.000519855875
	0.000530262180
	0.000540781087
	0.000551412796
	0.000562157508
	0.000573015421
	0.000583986732
	0.000595071637
	0.000606270331
	0.000617583005
	0.000629009852
	0.000640551063
	0.000652206826
	0.000663977330
	0.000675862760
	0.000687863304
	0.000699979145
	0.000712210466
	0.000724557449
	0.000737020275
	0.000749599124
	0.000762294174
	0.000775105604
	0.000788033589
	0.000801078305
	0.000814239926
	0.000827518626
	0.000840914576
	0.000854427949
	0.000868058914
	0.000881807641
	0.000895674299
	0.000909659053
	0.000923762072
	0.000937983520
	0.000952323563
	0.000966782363
	0.000981360084
	0.000996056887
	0.001010872934
	0.001025808385
	0.001040863398
	0.001056038133
	0.001071332748
	0.001086747398
	0.001102282240
	0.001117937429
	0.001133713120
	0.001149609466
	0.001165626620
	0.001181764733
	0.001198023959
	0.001214404445
	0.001230906344
	0.001247529803
	0.001264274972
	0.001281141997
	0.001298131025
	0.001315242204
	0.001332475677
	0.001349831591
	0.001367310089
	0.001384911314
	0.001402635410
	0.001420482519
	0.001438452782
	0.001456546339
	0.001474763332
	0.001493103899
	0.001511568180
	0.001530156313
	0.001548868435
	0.001567704684
	0.001586665196
	0.001605750107
	0.001624959553
	0.001644293667
	0.001663752585
	0.001683336439
	0.001703045363
	0.001722879489
	0.001742838949
	0.001762923874
	0.001783134395
	0.001803470642
	0.001823932746
	0.001844520834
	0.001865235036
	0.001886075480
	0.001907042293
	0.001928135603
	0.001949355536
	0.001970702217
	0.001992175774
	0.002013776330
	0.002035504010
	0.002057358939
	0.002079341239
	0.002101451035
	0.002123688448
	0.002146053601
	0.002168546616
	0.002191167614
	0.002213916715
	0.002236794041
	0.002259799710
	0.002282933842
	0.002306196557
	0.002329587973
	0.002353108208
	0.002376757380
	0.002400535605
	0.002424443002
	0.002448479685
	0.002472645772
	0.002496941378
	0.002521366618
	0.002545921607
	0.002570606458
	0.002595421287
	0.002620366207
	0.002645441331
	0.002670646771
	0.002695982640
	0.002721449051
	0.002747046114
	0.002772773941
	0.002798632643
	0.002824622330
	0.002850743112
	0.002876995100
	0.002903378402
	0.002929893128
	0.002956539386
	0.002983317284
	0.003010226931
	0.003037268434
	0.003064441900
	0.003091747437
	0.003119185150
	0.003146755146
	0.003174457531
	0.003202292410
	0.003230259889
	0.003258360072
	0.003286593065
	0.003314958970
	0.003343457893
	0.003372089936
	0.003400855202
	0.003429753796
	0.003458785819
	0.003487951373
	0.003517250562
	0.003546683485
	0.003576250245
	0.003605950943
	0.003635785679
	0.003665754554
	0.003695857667
	0.003726095120
	0.003756467011
	0.003786973440
	0.003817614505
	0.003848390306
	0.003879300940
	0.003910346506
	0.003941527101
	0.003972842824
	0.004004293771
	0.004035880039
	0.004067601725
	0.004099458926
	0.004131451737
	0.004163580254
	0.004195844574
	0.004228244791
	0.004260781000
	0.004293453297
	0.004326261775
	0.004359206530
	0.004392287654
	0.004425505243
	0.004458859388
	0.004492350184
	0.004525977724
	0.004559742100
	0.004593643405
	0.004627681731
	0.004661857170
	0.004696169813
	0.004730619753
	0.004765207081
	0.004799931886
	0.004834794262
	0.004869794297
	0.004904932082
	0.004940207707
	0.004975621263
	0.005011172838
	0.005046862522
	0.005082690404
	0.005118656573
	0.005154761118
	0.005191004127
	0.005227385688
	0.005263905890
	0.005300564820
	0.005337362566
	0.005374299214
	0.005411374853
	0.005448589569
	0.005485943448
	0.005523436578
	0.005561069044
	0.005598840933
	0.005636752330
	0.005674803320
	0.005712993990
	0.005751324425
	0.005789794709
	0.005828404927
	0.005867155165
	0.005906045505
	0.005945076033
	0.005984246832
	0.006023557986
	0.006063009579
	0.006102601695
	0.006142334415
	0.006182207824
	0.006222222003
	0.006262377037
	0.006302673006
	0.006343109993
	0.006383688081
	0.006424407351
	0.006465267884
	0.006506269762
	0.006547413067
	0.006588697880
	0.006630124280
	0.006671692350
	0.006713402169
	0.006755253818
	0.006797247377
	0.006839382926
	0.006881660545
	0.006924080313
	0.006966642310
	0.007009346615
	0.007052193308
	0.007095182466
	0.007138314169
	0.007181588496
	0.007225005524
	0.007268565333
	0.007312267999
	0.007356113601
	0.007400102217
	0.007444233924
	0.007488508800
	0.007532926921
	0.007577488365
	0.007622193208
	0.007667041528
	0.007712033401
	0.007757168903
	0.007802448110
	0.007847871099
	0.007893437945
	0.007939148725
	0.007985003513
	0.008031002385
	0.008077145416
	0.008123432682
	0.008169864258
	0.008216440218
	0.008263160636
	0.008310025588
	0.008357035148
	0.008404189389
	0.008451488387
	0.008498932214
	0.008546520944
	0.008594254652
	0.008642133410
	0.008690157291
	0.008738326370
	0.008786640719
	0.008835100410
	0.008883705516
	0.008932456111
	0.008981352266
	0.009030394053
	0.009079581545
	0.009128914814
	0.009178393931
	0.009228018968
	0.009277789998
	0.009327707090
	0.009377770317
	0.009427979749
	0.009478335458
	0.009528837514
	0.009579485988
	0.009630280951
	0.009681222473
	0.009732310624
	0.009783545475
	0.009834927096
	0.009886455556
	0.009938130926
	0.009989953274
	0.010041922671
	0.010094039186
	0.010146302888
	0.010198713846
	0.010251272129
	0.010303977807
	0.010356830947
	0.010409831619
	0.010462979890
	0.010516275830
	0.010569719506
	0.010623310987
	0.010677050340
	0.010730937634
	0.010784972935
	0.010839156313
	0.010893487833
	0.010947967564
	0.011002595573
	0.011057371927
	0.011112296692
	0.011167369937
	0.011222591726
	0.011277962128
	0.011333481209
	0.011389149034
	0.011444965671
	0.011500931185
	0.011557045642
	0.011613309109
	0.011669721651
	0.011726283334
	0.011782994223
	0.011839854384
	0.011896863883
	0.011954022784
	0.012011331152
	0.012068789053
	0.012126396551
	0.012184153712
	0.012242060599
	0.012300117278
	0.012358323813
	0.012416680268
	0.012475186708
	0.012533843196
	0.012592649796
	0.012651606573
	0.012710713590
	0.012769970911
	0.012829378600
	0.012888936719
	0.012948645333
	0.013008504504
	0.013068514296
	0.013128674772
	0.013188985994
	0.013249448025
	0.013310060929
	0.013370824768
	0.013431739604
	0.013492805499
	0.013554022517
	0.013615390718
	0.013676910166
	0.013738580923
	0.013800403049
	0.013862376608
	0.013924501660
	0.013986778267
	0.014049206492
	0.014111786394
	0.014174518036
	0.014237401479
	0.014300436783
	0.014363624010
	0.014426963221
	0.014490454476
	0.014554097837
	0.014617893363
	0.014681841116
	0.014745941155
	0.014810193542
	0.014874598335
	0.014939155596
	0.015003865385
	0.015068727761
	0.015133742784
	0.015198910515
	0.015264231012
	0.015329704335
	0.015395330544
	0.015461109698
	0.015527041856
	0.015593127078
	0.015659365423
	0.015725756949
	0.015792301716
	0.015858999783
	0.015925851208
	0.015992856049
	0.016060014367
	0.016127326218
	0.016194791661
	0.016262410755
	0.016330183558
	0.016398110128
	0.016466190523
	0.016534424801
	0.016602813020
	0.016671355237
	0.016740051510
	0.016808901898
	0.016877906457
	0.016947065244
	0.017016378318
	0.017085845735
	0.017155467553
	0.017225243828
	0.017295174619
	0.017365259980
	0.017435499971
	0.017505894646
	0.017576444064
	0.017647148279
	0.017718007350
	0.017789021333
	0.017860190283
	0.017931514257
	0.018002993311
	0.018074627501
	0.018146416884
	0.018218361515
	0.018290461450
	0.018362716745
	0.018435127455
	0.018507693637
	0.018580415346
	0.018653292636
	0.018726325564
	0.018799514185
	0.018872858554
	0.018946358726
	0.019020014757
	0.019093826700
	0.019167794612
	0.019241918547
	0.019316198560
	0.019390634705
	0.019465227037
	0.019539975610
	0.019614880480
	0.019689941700
	0.019765159324
	0.019840533408
	0.019916064005
	0.019991751168
	0.020067594953
	0.020143595413
	0.020219752602
	0.020296066573
	0.020372537381
	0.020449165078
	0.020525949720
	0.020602891358
	0.020679990047
	0.020757245839
	0.020834658789
	0.020912228948
	0.020989956372
	0.021067841111
	0.021145883220
	0.021224082751
	0.021302439757
	0.021380954292
	0.021459626406
	0.021538456154
	0.021617443588
	0.021696588760
	0.021775891723
	0.021855352528
	0.021934971229
	0.022014747877
	0.022094682525
	0.022174775225
	0.022255026028
	0.022335434987
	0.022416002153
	0.022496727579
	0.022577611316
	0.022658653415
	0.022739853929
	0.022821212908
	0.022902730404
	0.022984406470
	0.023066241155
	0.023148234511
	0.023230386590
	0.023312697442
	0.023395167119
	0.023477795671
	0.023560583150
	0.023643529606
	0.023726635091
	0.023809899654
	0.023893323347
	0.023976906220
	0.024060648324
	0.024144549709
	0.024228610426
	0.024312830524
	0.024397210055
	0.024481749069
	0.024566447615
	0.024651305743
	0.024736323505
	0.024821500949
	0.024906838126
	0.024992335085
	0.025077991877
	0.025163808551
	0.025249785156
	0.025335921743
	0.025422218360
	0.025508675058
	0.025595291885
	0.025682068891
	0.025769006126
	0.025856103638
	0.025943361477
	0.026030779692
	0.026118358332
	0.026206097446
	0.026293997082
	0.026382057290
	0.026470278119
	0.026558659617
	0.026647201833
	0.026735904815
	0.026824768613
	0.026913793274
	0.027002978848
	0.027092325382
	0.027181832925
	0.027271501525
	0.027361331231
	0.027451322090
	0.027541474151
	0.027631787462
	0.027722262070
	0.027812898024
	0.027903695372
	0.027994654161
	0.028085774439
	0.028177056254
	0.028268499654
	0.028360104686
	0.028451871398
	0.028543799836
	0.028635890050
	0.028728142085
	0.028820555990
	0.028913131811
	0.029005869596
	0.029098769392
	0.029191831246
	0.029285055206
	0.029378441317
	0.029471989627
	0.029565700184
	0.029659573033
	0.029753608221
	0.029847805796
	0.029942165804
	0.030036688291
	0.030131373305
	0.030226220891
	0.030321231096
	0.030416403967
	0.030511739549
	0.030607237890
	0.030702899035
	0.030798723030
	0.030894709922
	0.030990859757
	0.031087172581
	0.031183648440
	0.031280287379
	0.031377089445
	0.031474054684
	0.031571183140
	0.031668474861
	0.031765929891
	0.031863548277
	0.031961330063
	0.032059275296
	0.032157384020
	0.032255656282
	0.032354092126
	0.032452691599
	0.032551454744
	0.032650381608
	0.032749472236
	0.032848726672
	0.032948144962
	0.033047727150
	0.033147473283
	0.033247383404
	0.033347457559
	0.033447695792
	0.033548098149
	0.033648664673
	0.033749395410
	0.033850290404
	0.033951349699
	0.034052573342
	0.034153961374
	0.034255513843
	0.034357230790
	0.034459112262
	0.034561158302
	0.034663368954
	0.034765744264
	0.034868284274
	0.034970989029
	0.035073858572
	0.035176892949
	0.035280092203
	0.035383456378
	0.035486985518
	0.035590679666
	0.035694538866
	0.035798563163
	0.035902752599
	0.036007107219
	0.036111627066
	0.036216312183
	0.036321162614
	0.036426178403
	0.036531359592
	0.036636706226
	0.036742218348
	0.036847896000
	0.036953739226
	0.037059748070
	0.037165922574
	0.037272262781
	0.037378768735
	0.037485440479
	0.037592278054
	0.037699281506
	0.037806450875
	0.037913786206
	0.038021287540
	0.038128954921
	0.038236788392
	0.038344787994
	0.038452953770
	0.038561285764
	0.038669784018
	0.038778448573
	0.038887279473
	0.038996276760
	0.039105440476
	0.039214770664
	0.039324267365
	0.039433930623
	0.039543760478
	0.039653756974
	0.039763920152
	0.039874250055
	0.039984746724
	0.040095410202
	0.040206240530
	0.040317237750
	0.040428401904
	0.040539733034
	0.040651231181
	0.040762896388
	0.040874728695
	0.040986728146
	0.041098894780
	0.041211228640
	0.041323729767
	0.041436398203
	0.041549233989
	0.041662237166
	0.041775407776
	0.041888745860
	0.042002251460
	0.042115924616
	0.042229765370
	0.042343773762
	0.042457949835
	0.042572293628
	0.042686805184
	0.042801484542
	0.042916331745
	0.043031346832
	0.043146529845
	0.043261880824
	0.043377399810
	0.043493086845
	0.043608941968
	0.043724965221
	0.043841156643
	0.043957516276
	0.044074044160
	0.044190740335
	0.044307604843
	0.044424637723
	0.044541839016
	0.044659208762
	0.044776747001
	0.044894453774
	0.045012329122
	0.045130373083
	0.045248585698
	0.045366967008
	0.045485517053
	0.045604235872
	0.045723123505
	0.045842179993
	0.045961405375
	0.046080799692
	0.046200362983
	0.046320095288
	0.046439996646
	0.046560067098
	0.046680306683
	0.046800715441
	0.046921293411
	0.047042040634
	0.047162957147
	0.047284042992
	0.047405298208
	0.047526722834
	0.047648316908
	0.047770080472
	0.047892013564
	0.048014116223
	0.048136388489
	0.048258830401
	0.048381441997
	0.048504223318
	0.048627174403
	0.048750295289
	0.048873586017
	0.048997046626
	0.049120677154
	0.049244477640
	0.049368448123
	0.049492588643
	0.049616899237
	0.049741379945
	0.049866030806
	0.049990851858
	0.050115843139
	0.050241004689
	0.050366336547
	0.050491838750
	0.050617511337
	0.050743354347
	0.050869367818
	0.050995551789
	0.051121906298
	0.051248431383
	0.051375127083
	0.051501993436
	0.051629030481
	0.051756238255
	0.051883616797
	0.052011166145
	0.052138886337
	0.052266777411
	0.052394839405
	0.052523072358
	0.052651476307
	0.052780051290
	0.052908797345
	0.053037714510
	0.053166802823
	0.053296062322
	0.053425493045
	0.053555095028
	0.053684868311
	0.053814812931
	0.053944928924
	0.054075216330
	0.054205675185
	0.054336305528
	0.054467107395
	0.054598080825
	0.054729225854
	0.054860542520
	0.054992030860
	0.055123690912
	0.055255522714
	0.055387526302
	0.055519701714
	0.055652048986
	0.055784568157
	0.055917259263
	0.056050122342
	0.056183157430
	0.056316364565
	0.056449743784
	0.056583295123
	0.056717018620
	0.056850914312
	0.056984982235
	0.057119222426
	0.057253634923
	0.057388219762
	0.057522976980
	0.057657906614
	0.057793008700
	0.057928283275
	0.058063730376
	0.058199350039
	0.058335142301
	0.058471107199
	0.058607244769
	0.058743555048
	0.058880038071
	0.059016693876
	0.059153522499
	0.059290523977
	0.059427698345
	0.059565045640
	0.059702565898
	0.059840259156
	0.059978125450
	0.060116164816
	0.060254377290
	0.060392762909
	0.060531321708
	0.060670053723
	0.060808958991
	0.060948037547
	0.061087289429
	0.061226714670
	0.061366313309
	0.061506085379
	0.061646030918
	0.061786149961
	0.061926442544
	0.062066908703
	0.062207548473
	0.062348361890
	0.062489348991
	0.062630509809
	0.062771844382
	0.062913352745
	0.063055034933
	0.063196890983
	0.063338920928
	0.063481124806
	0.063623502651
	0.063766054499
	0.063908780385
	0.064051680345
	0.064194754413
	0.064338002626
	0.064481425019
	0.064625021627
	0.064768792484
	0.064912737627
	0.065056857091
	0.065201150910
	0.065345619119
	0.065490261755
	0.065635078852
	0.065780070444
	0.065925236567
	0.066070577257
	0.066216092547
	0.066361782473
	0.066507647070
	0.066653686372
	0.066799900415
	0.066946289233
	0.067092852861
	0.067239591333
	0.067386504685
	0.067533592952
	0.067680856167
	0.067828294366
	0.067975907583
	0.068123695852
	0.068271659209
	0.068419797688
	0.068568111323
	0.068716600149
	0.068865264200
	0.069014103511
	0.069163118116
	0.069312308049
	0.069461673345
	0.069611214039
	0.069760930163
	0.069910821754
	0.070060888845
	0.070211131469
	0.070361549662
	0.070512143458
	0.070662912890
	0.070813857993
	0.070964978801
	0.071116275347
	0.071267747667
	0.071419395793
	0.071571219761
	0.071723219603
	0.071875395354
	0.072027747048
	0.072180274718
	0.072332978398
	0.072485858123
	0.072638913926
	0.072792145841
	0.072945553901
	0.073099138140
	0.073252898592
	0.073406835291
	0.073560948270
	0.073715237562
	0.073869703203
	0.074024345224
	0.074179163659
	0.074334158543
	0.074489329908
	0.074644677788
	0.074800202217
	0.074955903227
	0.075111780852
