luts/gamma/rec2020--lin.spi1d
Version 1
From -0.125 1.125
Length 4096
Components 1
{
	0.025048875855
	0.025109925916
	0.025170975977
	0.025232026038
	0.025293076100
	0.025354126161
	0.025415176222
	0.025476226283
	0.025537276344
	0.025598326405
	0.025659376466
	0.025720426527
	0.025781476588
	0.025842526649
	0.025903576710
	0.025964626771
	0.026025676832
	0.026086726893
	0.026147776954
	0.026208827015
	0.026269877076
	0.026330927137
	0.026391977198
	0.026453027259
	0.026514077321
	0.026575127382
	0.026636177443
	0.026697227504
	0.026758277565
	0.026819327626
	0.026880377687
	0.026941427748
	0.027002477809
	0.027063527870
	0.027124577931
	0.027185627992
	0.027246678053
	0.027307728114
	0.027368778175
	0.027429828236
	0.027490878297
	0.027551928358
	0.027612978419
	0.027674028480
	0.027735078542
	0.027796128603
	0.027857178664
	0.027918228725
	0.027979278786
	0.028040328847
	0.028101378908
	0.028162428969
	0.028223479030
	0.028284529091
	0.028345579152
	0.028406629213
	0.028467679274
	0.028528729335
	0.028589779396
	0.028650829457
	0.028711879518
	0.028772929579
	0.028833979640
	0.028895029701
	0.028956079763
	0.029017129824
	0.029078179885
	0.029139229946
	0.029200280007
	0.029261330068
	0.029322380129
	0.029383430190
	0.029444480251
	0.029505530312
	0.029566580373
	0.029627630434
	0.029688680495
	0.029749730556
	0.029810780617
	0.029871830678
	0.029932880739
	0.029993930800
	0.030054980861
	0.030116030922
	0.030177080984
	0.030238131045
	0.030299181106
	0.030360231167
	0.030421281228
	0.030482331289
	0.030543381350
	0.030604431411
	0.030665481472
	0.030726531533
	0.030787581594
	0.030848631655
	0.030909681716
	0.030970731777
	0.031031781838
	0.031092831899
	0.031153881960
	0.031214932021
	0.031275982082
	0.031337032143
	0.031398082205
	0.031459132266
	0.031520182327
	0.031581232388
	0.031642282449
	0.031703332510
	0.031764382571
	0.031825432632
	0.031886482693
	0.031947532754
	0.032008582815
	0.032069632876
	0.032130682937
	0.032191732998
	0.032252783059
	0.032313833120
	0.032374883181
	0.032435933242
	0.032496983303
	0.032558033364
	0.032619083426
	0.032680133487
	0.032741183548
	0.032802233609
	0.032863283670
	0.032924333731
	0.032985383792
	0.033046433853
	0.033107483914
	0.033168533975
	0.033229584036
	0.033290634097
	0.033351684158
	0.033412734219
	0.033473784280
	0.033534834341
	0.033595884402
	0.033656934463
	0.033717984524
	0.033779034585
	0.033840084647
	0.033901134708
	0.033962184769
	0.034023234830
	0.034084284891
	0.034145334952
	0.034206385013
	0.034267435074
	0.034328485135
	0.034389535196
	0.034450585257
	0.034511635318
	0.034572685379
	0.034633735440
	0.034694785501
	0.034755835562
	0.034816885623
	0.034877935684
	0.034938985745
	0.035000035806
	0.035061085868
	0.035122135929
	0.035183185990
	0.035244236051
	0.035305286112
	0.035366336173
	0.035427386234
	0.035488436295
	0.035549486356
	0.035610536417
	0.035671586478
	0.035732636539
	0.035793686600
	0.035854736661
	0.035915786722
	0.035976836783
	0.036037886844
	0.036098936905
	0.036159986966
	0.036221037027
	0.036282087089
	0.036343137150
	0.036404187211
	0.036465237272
	0.036526287333
	0.036587337394
	0.036648387455
	0.036709437516
	0.036770487577
	0.036831537638
	0.036892587699
	0.036953637760
	0.037014687821
	0.037075737882
	0.037136787943
	0.037197838004
	0.037258888065
	0.037319938126
	0.037380988187
	0.037442038248
	0.037503088310
	0.037564138371
	0.037625188432
	0.037686238493
	0.037747288554
	0.037808338615
	0.037869388676
	0.037930438737
	0.037991488798
	0.038052538859
	0.038113588920
	0.038174638981
	0.038235689042
	0.038296739103
	0.038357789164
	0.038418839225
	0.038479889286
	0.038540939347
	0.038601989408
	0.038663039469
	0.038724089531
	0.038785139592
	0.038846189653
	0.038907239714
	0.038968289775
	0.039029339836
	0.039090389897
	0.039151439958
	0.039212490019
	0.039273540080
	0.039334590141
	0.039395640202
	0.039456690263
	0.039517740324
	0.039578790385
	0.039639840446
	0.039700890507
	0.039761940568
	0.039822990629
	0.039884040690
	0.039945090752
	0.040006140813
	0.040067190874
	0.040128240935
	0.040189290996
	0.040250341057
	0.040311391118
	0.040372441179
	0.040433491240
	0.040494541301
	0.040555591362
	0.040616641423
	0.040677691484
	0.040738741545
	0.040799791606
	0.040860841667
	0.040921891728
	0.040982941789
	0.041043991850
	0.041105041911
	0.041166091973
	0.041227142034
	0.041288192095
	0.041349242156
	0.041410292217
	0.041471342278
	0.041532392339
	0.041593442400
	0.041654492461
	0.041715542522
	0.041776592583
	0.041837642644
	0.041898692705
	0.041959742766
	0.042020792827
	0.042081842888
	0.042142892949
	0.042203943010
	0.042264993071
	0.042326043132
	0.042387093194
	0.042448143255
	0.042509193316
	0.042570243377
	0.042631293438
	0.042692343499
	0.042753393560
	0.042814443621
	0.042875493682
	0.042936543743
	0.042997593804
	0.043058643865
	0.043119693926
	0.043180743987
	0.043241794048
	0.043302844109
	0.043363894170
	0.043424944231
	0.043485994292
	0.043547044353
	0.043608094415
	0.043669144476
	0.043730194537
	0.043791244598
	0.043852294659
	0.043913344720
	0.043974394781
	0.044035444842
	0.044096494903
	0.044157544964
	0.044218595025
	0.044279645086
	0.044340695147
	0.044401745208
	0.044462795269
	0.044523845330
	0.044584895391
	0.044645945452
	0.044706995513
	0.044768045574
	0.044829095636
	0.044890145697
	0.044951195758
	0.045012245819
	0.045073295880
	0.045134345941
	0.045195396002
	0.045256446063
	0.045317496124
	0.045378546185
	0.045439596246
	0.045500646307
	0.045561696368
	0.045622746429
	0.045683796490
	0.045744846551
	0.045805896612
	0.045866946673
	0.045927996734
	0.045989046795
	0.046050096857
	0.046111146918
	0.046172196979
	0.046233247040
	0.046294297101
	0.046355347162
	0.046416397223
	0.046477447284
	0.046538497345
	0.046599547406
	0.046660597467
	0.046721647528
	0.046782697589
	0.046843747650
	0.046904797711
	0.046965847772
	0.047026897833
	0.047087947894
	0.047148997955
	0.047210048016
	0.047271098078
	0.047332148139
	0.047393198200
	0.047454248261
	0.047515298322
	0.047576348383
	0.047637398444
	0.047698448505
	0.047759498566
	0.047820548627
	0.047881598688
	0.047942648749
	0.048003698810
	0.048064748871
	0.048125798932
	0.048186848993
	0.048247899054
	0.048308949115
	0.048369999176
	0.048431049238
	0.048492099299
	0.048553149360
	0.048614199421
	0.048675249482
	0.048736299543
	0.048797349604
	0.048858399665
	0.048919449726
	0.048980499787
	0.049041549848
	0.049102599909
	0.049163649970
	0.049224700031
	0.049285750092
	0.049346800153
	0.049407850214
	0.049468900275
	0.049529950336
	0.049591000397
	0.049652050459
	0.049713100520
	0.049774150581
	0.049835200642
	0.049896250703
	0.049957300764
	0.050018350825
	0.050079400886
	0.050140450947
	0.050201501008
	0.050262551069
	0.050323601130
	0.050384651191
	0.050445701252
	0.050506751313
	0.050567801374
	0.050628851435
	0.050689901496
	0.050750951557
	0.050812001618
	0.050873051680
	0.050934101741
	0.050995151802
	0.051056201863
	0.051117251924
	0.051178301985
	0.051239352046
	0.051300402107
	0.051361452168
	0.051422502229
	0.051483552290
	0.051544602351
	0.051605652412
	0.051666702473
	0.051727752534
	0.051788802595
	0.051849852656
	0.051910902717
	0.051971952778
	0.052033002839
	0.052094052901
	0.052155102962
	0.052216153023
	0.052277203084
	0.052338253145
	0.052399303206
	0.052460353267
	0.052521403328
	0.052582453389
	0.052643503450
	0.052704553511
	0.052765603572
	0.052826653633
	0.052887703694
	0.052948753755
	0.053009803816
	0.053070853877
	0.053131903938
	0.053192953999
	0.053254004060
	0.053315054122
	0.053376104183
	0.053437154244
	0.053498204305
	0.053559254366
	0.053620304427
	0.053681354488
	0.053742404549
	0.053803454610
	0.053864504671
	0.053925554732
	0.053986604793
	0.054047654854
	0.054108704915
	0.054169754976
	0.054230805037
	0.054291855098
	0.054352905159
	0.054413955220
	0.054475005281
	0.054536055343
	0.054597105404
	0.054658155465
	0.054719205526
	0.054780255587
	0.054841305648
	0.054902355709
	0.054963405770
	0.055024455831
	0.055085505892
	0.055146555953
	0.055207606014
	0.055268656075
	0.055329706136
	0.055390756197
	0.055451806258
	0.055512856319
	0.055573906380
	0.055634956441
	0.055696006502
	0.055757056564
	0.055818106625
	0.055879156686
	0.055940206747
	0.056001256808
	0.056062306869
	0.056123356930
	0.056184406991
	0.056245457052
	0.056306507113
	0.056367557174
	0.056428607235
	0.056489657296
	0.056550707357
	0.056611757418
	0.056672807479
	0.056733857540
	0.056794907601
	0.056855957662
	0.056917007723
	0.056978057785
	0.057039107846
	0.057100157907
	0.057161207968
	0.057222258029
	0.057283308090
	0.057344358151
	0.057405408212
	0.057466458273
	0.057527508334
	0.057588558395
	0.057649608456
	0.057710658517
	0.057771708578
	0.057832758639
	0.057893808700
	0.057954858761
	0.058015908822
	0.058076958883
	0.058138008944
	0.058199059006
	0.058260109067
	0.058321159128
	0.058382209189
	0.058443259250
	0.058504309311
	0.058565359372
	0.058626409433
	0.058687459494
	0.058748509555
	0.058809559616
	0.058870609677
	0.058931659738
	0.058992709799
	0.059053759860
	0.059114809921
	0.059175859982
	0.059236910043
	0.059297960104
	0.059359010165
	0.059420060227
	0.059481110288
	0.059542160349
	0.059603210410
	0.059664260471
	0.059725310532
	0.059786360593
	0.059847410654
	0.059908460715
	0.059969510776
	0.060030560837
	0.060091610898
	0.060152660959
	0.060213711020
	0.060274761081
	0.060335811142
	0.060396861203
	0.060457911264
	0.060518961325
	0.060580011386
	0.060641061448
	0.060702111509
	0.060763161570
	0.060824211631
	0.060885261692
	0.060946311753
	0.061007361814
	0.061068411875
	0.061129461936
	0.061190511997
	0.061251562058
	0.061312612119
	0.061373662180
	0.061434712241
	0.061495762302
	0.061556812363
	0.061617862424
	0.061678912485
	0.061739962546
	0.061801012607
	0.061862062669
	0.061923112730
	0.061984162791
	0.062045212852
	0.062106262913
	0.062167312974
	0.062228363035
	0.062289413096
	0.062350463157
	0.062411513218
	0.062472563279
	0.062533613340
	0.062594663401
	0.062655713462
	0.062716763523
	0.062777813584
	0.062838863645
	0.062899913706
	0.062960963767
	0.063022013828
	0.063083063890
	0.063144113951
	0.063205164012
	0.063266214073
	0.063327264134
	0.063388314195
	0.063449364256
	0.063510414317
	0.063571464378
	0.063632514439
	0.063693564500
	0.063754614561
	0.063815664622
	0.063876714683
	0.063937764744
	0.063998814805
	0.064059864866
	0.064120914927
	0.064181964988
	0.064243015049
	0.064304065111
	0.064365115172
	0.064426165233
	0.064487215294
	0.064548265355
	0.064609315416
	0.064670365477
	0.064731415538
	0.064792465599
	0.064853515660
	0.064914565721
	0.064975615782
	0.065036665843
	0.065097715904
	0.065158765965
	0.065219816026
	0.065280866087
	0.065341916148
	0.065402966209
	0.065464016270
	0.065525066332
	0.065586116393
	0.065647166454
	0.065708216515
	0.065769266576
	0.065830316637
	0.065891366698
	0.065952416759
	0.066013466820
	0.066074516881
	0.066135566942
	0.066196617003
	0.066257667064
	0.066318717125
	0.066379767186
	0.066440817247
	0.066501867308
	0.066562917369
	0.066623967430
	0.066685017491
	0.066746067553
	0.066807117614
	0.066868167675
	0.066929217736
	0.066990267797
	0.067051317858
	0.067112367919
	0.067173417980
	0.067234468041
	0.067295518102
	0.067356568163
	0.067417618224
	0.067478668285
	0.067539718346
	0.067600768407
	0.067661818468
	0.067722868529
	0.067783918590
	0.067844968651
	0.067906018712
	0.067967068774
	0.068028118835
	0.068089168896
	0.068150218957
	0.068211269018
	0.068272319079
	0.068333369140
	0.068394419201
	0.068455469262
	0.068516519323
	0.068577569384
	0.068638619445
	0.068699669506
	0.068760719567
	0.068821769628
	0.068882819689
	0.068943869750
	0.069004919811
	0.069065969872
	0.069127019933
	0.069188069995
	0.069249120056
	0.069310170117
	0.069371220178
	0.069432270239
	0.069493320300
	0.069554370361
	0.069615420422
	0.069676470483
	0.069737520544
	0.069798570605
	0.069859620666
	0.069920670727
	0.069981720788
	0.070042770849
	0.070103820910
	0.070164870971
	0.070225921032
	0.070286971093
	0.070348021154
	0.070409071216
	0.070470121277
	0.070531171338
	0.070592221399
	0.070653271460
	0.070714321521
	0.070775371582
	0.070836421643
	0.070897471704
	0.070958521765
	0.071019571826
	0.071080621887
	0.071141671948
	0.071202722009
	0.071263772070
	0.071324822131
	0.071385872192
	0.071446922253
	0.071507972314
	0.071569022375
	0.071630072437
	0.071691122498
	0.071752172559
	0.071813222620
	0.071874272681
	0.071935322742
	0.071996372803
	0.072057422864
	0.072118472925
	0.072179522986
	0.072240573047
	0.072301623108
	0.072362673169
	0.072423723230
	0.072484773291
	0.072545823352
	0.072606873413
	0.072667923474
	0.072728973535
	0.072790023596
	0.072851073658
	0.072912123719
	0.072973173780
	0.073034223841
	0.073095273902
	0.073156323963
	0.073217374024
	0.073278424085
	0.073339474146
	0.073400524207
	0.073461574268
	0.073522624329
	0.073583674390
	0.073644724451
	0.073705774512
	0.073766824573
	0.073827874634
	0.073888924695
	0.073949974756
	0.074011024817
	0.074072074879
	0.074133124940
	0.074194175001
	0.074255225062
	0.074316275123
	0.074377325184
	0.074438375245
	0.074499425306
	0.074560475367
	0.074621525428
	0.074682575489
	0.074743625550
	0.074804675611
	0.074865725672
	0.074926775733
	0.074987825794
	0.075048875855
	0.075109925916
	0.075170975977
	0.075232026038
	0.075293076100
	0.075354126161
	0.075415176222
	0.075476226283
	0.075537276344
	0.075598326405
	0.075659376466
	0.075720426527
	0.075781476588
	0.075842526649
	0.075903576710
	0.075964626771
	0.076025676832
	0.076086726893
	0.076147776954
	0.076208827015
	0.076269877076
	0.076330927137
	0.076391977198
	0.076453027259
	0.076514562558
	0.076575781968
	0.076637148814
	0.076698663160
	0.076760325071
	0.076822134610
	0.076884091841
	0.076946196830
	0.077008449640
	0.077070850334
	0.077133398977
	0.077196095632
	0.077258940362
	0.077321933232
	0.077385074304
	0.077448363642
	0.077511801308
	0.077575387367
	0.077639121881
	0.077703004912
	0.077767036524
	0.077831216780
	0.077895545742
	0.077960023472
	0.078024650033
	0.078089425488
	0.078154349898
	0.078219423326
	0.078284645834
	0.078350017484
	0.078415538337
	0.078481208456
	0.078547027902
	0.078612996737
	0.078679115022
	0.078745382819
	0.078811800189
	0.078878367194
	0.078945083894
	0.079011950351
	0.079078966626
	0.079146132779
	0.079213448872
	0.079280914965
	0.079348531119
	0.079416297394
	0.079484213851
	0.079552280551
	0.079620497553
	0.079688864918
	0.079757382707
	0.079826050978
	0.079894869793
	0.079963839210
	0.080032959291
	0.080102230094
	0.080171651679
	0.080241224106
	0.080310947434
	0.080380821723
	0.080450847032
	0.080521023420
	0.080591350946
	0.080661829670
	0.080732459651
	0.080803240947
	0.080874173617
	0.080945257720
	0.081016493314
	0.081087880459
	0.081159419213
	0.081231109634
	0.081302951780
	0.081374945711
	0.081447091483
	0.081519389156
	0.081591838787
	0.081664440434
	0.081737194155
	0.081810100008
	0.081883158051
	0.081956368341
	0.082029730936
	0.082103245894
	0.082176913271
	0.082250733126
	0.082324705515
	0.082398830496
	0.082473108125
	0.082547538461
	0.082622121560
	0.082696857478
	0.082771746273
	0.082846788001
	0.082921982720
	0.082997330485
	0.083072831353
	0.083148485381
	0.083224292626
	0.083300253142
	0.083376366988
	0.083452634218
	0.083529054889
	0.083605629058
	0.083682356779
	0.083759238109
	0.083836273104
	0.083913461820
	0.083990804311
	0.084068300634
	0.084145950845
	0.084223754998
	0.084301713149
	0.084379825354
	0.084458091668
	0.084536512146
	0.084615086842
	0.084693815813
	0.084772699113
	0.084851736797
	0.084930928920
	0.085010275536
	0.085089776701
	0.085169432469
	0.085249242894
	0.085329208031
	0.085409327935
	0.085489602660
	0.085570032260
	0.085650616790
	0.085731356303
	0.085812250854
	0.085893300497
	0.085974505285
	0.086055865273
	0.086137380515
	0.086219051064
	0.086300876974
	0.086382858299
	0.086464995092
	0.086547287406
	0.086629735296
	0.086712338815
	0.086795098015
	0.086878012951
	0.086961083675
	0.087044310241
	0.087127692701
	0.087211231110
	0.087294925518
	0.087378775980
	0.087462782549
	0.087546945276
	0.087631264216
	0.087715739419
	0.087800370940
	0.087885158830
	0.087970103142
	0.088055203929
	0.088140461242
	0.088225875134
	0.088311445657
	0.088397172864
	0.088483056806
	0.088569097535
	0.088655295103
	0.088741649563
	0.088828160966
	0.088914829364
	0.089001654809
	0.089088637351
	0.089175777044
	0.089263073938
	0.089350528085
	0.089438139536
	0.089525908343
	0.089613834557
	0.089701918229
	0.089790159411
	0.089878558153
	0.089967114507
	0.090055828524
	0.090144700254
	0.090233729749
	0.090322917060
	0.090412262236
	0.090501765330
	0.090591426391
	0.090681245470
	0.090771222618
	0.090861357885
	0.090951651322
	0.091042102979
	0.091132712907
	0.091223481156
	0.091314407775
	0.091405492815
	0.091496736327
	0.091588138360
	0.091679698965
	0.091771418190
	0.091863296087
	0.091955332705
	0.092047528094
	0.092139882303
	0.092232395382
	0.092325067381
	0.092417898349
	0.092510888337
	0.092604037392
	0.092697345566
	0.092790812906
	0.092884439463
	0.092978225285
	0.093072170423
	0.093166274924
	0.093260538838
	0.093354962215
	0.093449545102
	0.093544287549
	0.093639189606
	0.093734251320
	0.093829472740
	0.093924853915
	0.094020394895
	0.094116095726
	0.094211956459
	0.094307977141
	0.094404157822
	0.094500498548
	0.094596999369
	0.094693660334
	0.094790481489
	0.094887462884
	0.094984604567
	0.095081906586
	0.095179368988
	0.095276991822
	0.095374775136
	0.095472718977
	0.095570823394
	0.095669088435
	0.095767514146
	0.095866100576
	0.095964847773
	0.096063755783
	0.096162824655
	0.096262054436
	0.096361445174
	0.096460996915
	0.096560709708
	0.096660583600
	0.096760618637
	0.096860814867
	0.096961172338
	0.097061691096
	0.097162371188
	0.097263212662
	0.097364215564
	0.097465379942
	0.097566705841
	0.097668193310
	0.097769842395
	0.097871653142
	0.097973625598
	0.098075759810
	0.098178055825
	0.098280513689
	0.098383133448
	0.098485915149
	0.098588858838
	0.098691964562
	0.098795232368
	0.098898662300
	0.099002254406
	0.099106008732
	0.099209925323
	0.099314004227
	0.099418245488
	0.099522649153
	0.099627215269
	0.099731943880
	0.099836835032
	0.099941888772
	0.100047105145
	0.100152484197
	0.100258025974
	0.100363730521
	0.100469597884
	0.100575628108
	0.100681821239
	0.100788177322
	0.100894696403
	0.101001378527
	0.101108223739
	0.101215232085
	0.101322403610
	0.101429738359
	0.101537236377
	0.101644897709
	0.101752722401
	0.101860710497
	0.101968862043
	0.102077177083
	0.102185655662
	0.102294297824
	0.102403103616
	0.102512073081
	0.102621206265
	0.102730503211
	0.102839963965
	0.102949588571
	0.103059377074
	0.103169329518
	0.103279445948
	0.103389726407
	0.103500170941
	0.103610779594
	0.103721552409
	0.103832489432
	0.103943590707
	0.104054856277
	0.104166286187
	0.104277880480
	0.104389639202
	0.104501562395
	0.104613650105
	0.104725902374
	0.104838319246
	0.104950900766
	0.105063646977
	0.105176557924
	0.105289633649
	0.105402874196
	0.105516279609
	0.105629849932
	0.105743585208
	0.105857485481
	0.105971550794
	0.106085781190
	0.106200176713
	0.106314737407
	0.106429463314
	0.106544354478
	0.106659410942
	0.106774632749
	0.106890019943
	0.107005572567
	0.107121290663
	0.107237174274
	0.107353223444
	0.107469438216
	0.107585818633
	0.107702364736
	0.107819076570
	0.107935954177
	0.108052997600
	0.108170206882
	0.108287582064
	0.108405123190
	0.108522830303
	0.108640703445
	0.108758742658
	0.108876947986
	0.108995319470
	0.109113857152
	0.109232561077
	0.109351431284
	0.109470467818
	0.109589670720
	0.109709040032
	0.109828575797
	0.109948278057
	0.110068146853
	0.110188182229
	0.110308384225
	0.110428752885
	0.110549288249
	0.110669990361
	0.110790859261
	0.110911894992
	0.111033097595
	0.111154467113
	0.111276003586
	0.111397707058
	0.111519577568
	0.111641615160
	0.111763819875
	0.111886191753
	0.112008730838
	0.112131437169
	0.112254310789
	0.112377351740
	0.112500560061
	0.112623935796
	0.112747478985
	0.112871189669
	0.112995067890
	0.113119113689
	0.113243327106
	0.113367708184
	0.113492256964
	0.113616973485
	0.113741857790
	0.113866909919
	0.113992129914
	0.114117517815
	0.114243073663
	0.114368797499
	0.114494689364
	0.114620749298
	0.114746977343
	0.114873373539
	0.114999937927
	0.115126670547
	0.115253571440
	0.115380640647
	0.115507878208
	0.115635284163
	0.115762858554
	0.115890601420
	0.116018512802
	0.116146592741
	0.116274841276
	0.116403258448
	0.116531844298
	0.116660598865
	0.116789522190
	0.116918614313
	0.117047875273
	0.117177305112
	0.117306903870
	0.117436671585
	0.117566608299
	0.117696714051
	0.117826988881
	0.117957432829
	0.118088045935
	0.118218828239
	0.118349779781
	0.118480900600
	0.118612190736
	0.118743650229
	0.118875279118
	0.119007077444
	0.119139045246
	0.119271182562
	0.119403489434
	0.119535965900
	0.119668612001
	0.119801427774
	0.119934413260
	0.120067568499
	0.120200893529
	0.120334388389
	0.120468053120
	0.120601887761
	0.120735892350
	0.120870066927
	0.121004411531
	0.121138926201
	0.121273610976
	0.121408465895
	0.121543490998
	0.121678686323
	0.121814051910
	0.121949587797
	0.122085294023
	0.122221170627
	0.122357217648
	0.122493435125
	0.122629823096
	0.122766381601
	0.122903110677
	0.123040010365
	0.123177080701
	0.123314321726
	0.123451733478
	0.123589315994
	0.123727069315
	0.123864993477
	0.124003088521
	0.124141354484
	0.124279791404
	0.124418399320
	0.124557178271
	0.124696128294
	0.124835249429
	0.124974541713
	0.125114005184
	0.125253639881
	0.125393445842
	0.125533423105
	0.125673571708
	0.125813891690
	0.125954383088
	0.126095045941
	0.126235880285
	0.126376886161
	0.126518063604
	0.126659412654
	0.126800933348
	0.126942625724
	0.127084489820
	0.127226525674
	0.127368733323
	0.127511112805
	0.127653664158
	0.127796387420
	0.127939282627
	0.128082349819
	0.128225589032
	0.128369000304
	0.128512583673
	0.128656339175
	0.128800266850
	0.128944366733
	0.129088638862
	0.129233083276
	0.129377700010
	0.129522489104
	0.129667450593
	0.129812584515
	0.129957890907
	0.130103369808
	0.130249021253
	0.130394845280
	0.130540841926
	0.130687011228
	0.130833353224
	0.130979867950
	0.131126555443
	0.131273415741
	0.131420448881
	0.131567654898
	0.131715033832
	0.131862585717
	0.132010310591
	0.132158208491
	0.132306279454
	0.132454523516
	0.132602940715
	0.132751531087
	0.132900294668
	0.133049231495
	0.133198341606
	0.133347625036
	0.133497081823
	0.133646712002
	0.133796515610
	0.133946492685
	0.134096643261
	0.134246967377
	0.134397465068
	0.134548136370
	0.134698981320
	0.134849999955
	0.135001192310
	0.135152558422
	0.135304098328
	0.135455812063
	0.135607699664
	0.135759761167
	0.135911996607
	0.136064406022
	0.136216989448
	0.136369746919
	0.136522678474
	0.136675784146
	0.136829063974
	0.136982517991
	0.137136146236
	0.137289948742
	0.137443925547
	0.137598076687
	0.137752402196
	0.137906902111
	0.138061576468
	0.138216425302
	0.138371448650
	0.138526646546
	0.138682019027
	0.138837566128
	0.138993287886
	0.139149184335
	0.139305255511
	0.139461501450
	0.139617922187
	0.139774517758
	0.139931288198
	0.140088233543
	0.140245353828
	0.140402649089
	0.140560119362
	0.140717764680
	0.140875585080
	0.141033580598
	0.141191751268
	0.141350097125
	0.141508618205
	0.141667314544
	0.141826186176
	0.141985233136
	0.142144455460
	0.142303853183
	0.142463426340
	0.142623174965
	0.142783099095
	0.142943198764
	0.143103474007
	0.143263924858
	0.143424551354
	0.143585353529
	0.143746331417
	0.143907485054
	0.144068814475
	0.144230319714
	0.144392000806
	0.144553857786
	0.144715890689
	0.144878099549
	0.145040484402
	0.145203045281
	0.145365782222
	0.145528695258
	0.145691784426
	0.145855049759
	0.146018491292
	0.146182109059
	0.146345903096
	0.146509873436
	0.146674020114
	0.146838343164
	0.147002842621
	0.147167518519
	0.147332370893
	0.147497399777
	0.147662605205
	0.147827987212
	0.147993545831
	0.148159281098
	0.148325193046
	0.148491281710
	0.148657547123
	0.148823989321
	0.148990608337
	0.149157404205
	0.149324376959
	0.149491526633
	0.149658853263
	0.149826356880
	0.149994037520
	0.150161895217
